X: 1979
T: Artsy Smartsy Phoebe
R: reel
M: 4/4
K: Cmajor
cB|:AFDC B,DFG|F2E3 DEG|AFDC B,DFG|(E4 E) DEG|G2F F2 EEG|
A2Gc2 CCG|AFDC B,CDB,|1 C6 cB:|2 (C4 C) DEG||
|:cGGGe2 ef|edcB cGGG|d2GG f2fe|defg eGGG|
cGGG a2gf|defg {f}g2fe|{f}g3f feec|BcdBc4:|

